X: 1
T: Loon Mountain Reel
P: Loon Mountain Reel
R: reel
C: by John Turner (c) 1984
C: "Melodies yn the Scottish Style"
C: from SRSNH 5.3 1992
M: 2/4
L: 1/16
K: Gm
G2 B6 _A2|: D4| "Gm"G^FGA BABc|d2d2 G2B2|"F"A2>B2 c2>B2|"Dm"A2F2 D2>A2|"Gm"G^FGA BABc|"Gm"d2d2 "C7"g2>=e2|"F"f2c2 "Dm"dcBA|"Gm"G4 :|
|: d4|"Gm"gfed cBAG|gfed cBAG|"F" A2>B2 c2>B2|"Dm"A2F2 D2d2|"Gm"gfed cBAG|gfed cBAG|"F"FGAB "Dm"c2A2|"Gm"G4 :|
